X: 569
T: Flowers of Edinburgh
B: jims roots
M:C|
L:1/8
R: reel
Q: 1/4=100
K:G
V:1 
GE | "G"D2DE G2GA | BGBd "(C)"cBAG | "D"FGFE DEFG | AFdF "Em"E2GE |
"G"D2DE G2GA | BGBd "C"efge | "D"dcBA GFGA | "G"B2G2 G2 :|
|: d2 | "G"g2gd gbag | "D"f2fd fagf | "C"e2ef gfed | "Em"B2e2 e2ge |
"G"dBGB d2d2 | "C"edef g2fe | "D"dcBA GFGA | "G"B2G2 G2 :|
% abcbook-tune_id 6298c25d9b4967f9814fc472


% abcbook-boost 0
% abcbook-tablature 
% abcbook-transpose 
% abcbook-lastupdated 1665491224324
% abcbook-soundfonts 
% abcbook-repeats 1


